public/images/founder.svg

<svg height="58" viewBox="0 0 58 58" width="58" xmlns="http://www.w3.org/2000/svg"><g fill="none" fill-rule="evenodd" opacity=".8"><path d="m30.05 11.5c.0327059 1.2269198-.8404431 2.2917357-2.05 2.5v1c0 .5522847-.4477153 1-1 1s-1-.4477153-1-1v-1h-1c-.5522847 0-1-.4477153-1-1s.4477153-1 1-1h2.64c.2381603-.0478696.4095012-.2570765.4095012-.5s-.1713409-.4521304-.4095012-.5h-.93c-.6498246-.0131263-1.2678034-.2839265-1.7179194-.7527973-.4501161-.46887092-.6954776-1.09738359-.6820806-1.7472027-.0138389-1.0786347.6684376-2.04351095 1.69-2.39v-1.11c0-.55228475.4477153-1 1-1s1 .44771525 1 1v1h1c.5522847 0 1 .44771525 1 1s-.4477153 1-1 1h-2.29c-.2381603.04786962-.4095012.25707652-.4095012.5s.1713409.45213038.4095012.5h1.29c.2255642.0013084.4440607.07883941.62.22.8817131.41474261 1.4404964 1.3056699 1.43 2.28z" fill="#101527" fill-rule="nonzero"/><path d="m53 53v2c0 .5522847-.4477153 1-1 1h-13.38c.0292869-.0609782.0527251-.1245963.07-.19l1.06-3.81h12.25c.5522847 0 1 .4477153 1 1z" fill="#fff" fill-rule="nonzero" opacity=".5"/><path d="m11 52v1c0 .5522847-.4477153 1-1 1-.55228475 0-1-.4477153-1-1v-1h-1c-.55228475 0-1-.4477153-1-1s.44771525-1 1-1h2.64c.2381603-.0478696.4095012-.2570765.4095012-.5s-.1713409-.4521304-.4095012-.5h-.93c-.64982464-.0131263-1.2678034-.2839265-1.71791944-.7527973-.45011605-.4688709-.69547755-1.0973836-.68208056-1.7472027-.01383888-1.0786347.66843763-2.0435109 1.69-2.39v-1.11c0-.5522847.44771525-1 1-1 .5522847 0 1 .4477153 1 1v1h1c.5522847 0 1 .4477153 1 1s-.4477153 1-1 1h-2.29c-.23816027.0478696-.40950124.2570765-.40950124.5s.17134097.4521304.40950124.5h1.29c.2255642.0013084.4440607.0788394.62.22 1.0093147.4574224 1.6013786 1.520507 1.4588403 2.6194312-.1425383 1.0989241-.9862264 1.9757814-2.0788403 2.1605688z" fill="#101527"/><g fill-rule="nonzero"><path d="m40.66 41.27-3.89 14c-.1245106.4452375-.5379962.747082-1 .73h-17c-.4620038.017082-.8754894-.2847625-1-.73l-.22-.79c.5669775-.664828 1.0443763-1.4010979 1.42-2.19.477503-.9980182.7818398-2.0699602.9-3.17.0811437-.3696267.1412403-.7435615.18-1.12.0017165-.4755263-.0350704-.950411-.11-1.42-.0879607-.6516332-.2455277-1.2919587-.47-1.91-.6628221-1.8690788-1.8717033-3.4960169-3.47-4.6700288h23.69c.313008-.0023428.6090686.1419868.8.3900288.1923065.250095.2553182.576273.17.88z" fill="#fff" opacity=".5"/><path d="m56 47v2c0 .5522847-.4477153 1-1 1h-14.7l1.11-4h13.59c.5522847 0 1 .4477153 1 1z" fill="#fff" opacity=".5"/><rect fill="#fff" height="4" opacity=".5" rx="1" width="16" x="40" y="34"/><path d="m53 41v2c0 .5522847-.4477153 1-1 1h-10l.61-2.2c.1708447-.5912489.1498383-1.2214405-.06-1.8h9.45c.5522847 0 1 .4477153 1 1z" fill="#fff" opacity=".5"/><path d="m28 9h-.36c.3455937-.00239561.6873208.07278437 1 .22-.1812813-.14548592-.4075816-.22327665-.64-.22z" fill="#000"/><path d="m10.64 47c.3455937-.0023956.6873208.0727844 1 .22-.1812813-.1454859-.4075816-.2232766-.64-.22z" fill="#000"/><path d="m58 37v-2c0-1.6568542-1.3431458-3-3-3h-14c-1.6568542 0-3 1.3431458-3 3v2c-.0021716.3415805.0588549.6806165.18 1h-10.18v-3.41c3.0160595 1.3786937 6.5856606.4518499 8.55-2.22l3.55-4.84c.1552559-.2132696.2199531-.4792471.18-.74-.0371621-.2630733-.1774857-.5005439-.39-.66-1.4968395-1.100203-3.3696196-1.5602982-5.2058711-1.2789522s-3.4853637 1.281057-4.5841289 2.7789522l-2.1 2.86v-10.49s0 0 0-.05c1.7169328-.1712599 3.3619646-.776962 4.78-1.76 1.4227904-.9910495 2.5634421-2.3350198 3.31-3.9.477503-.9980182.7818398-2.0699602.9-3.17.0409374-.3719168.0609689-.7458382.06-1.12.0017165-.47552632-.0350704-.95041105-.11-1.42-.0879607-.65163321-.2455277-1.29195867-.47-1.91-1.4192915-3.98367494-5.1910457-6.64387128-9.42-6.64387128s-8.0007085 2.66019634-9.42 6.64387128c-.2400834.64486577-.4012548 1.31641306-.48 2-.0097276.0763581-.0097276.1536419 0 .23-.0588918.36389267-.0923064.73145295-.1 1.1-.0010392.3708378.0189931.741435.06 1.11.523413 4.665141 4.2214215 8.3381911 8.89 8.83v.06 9.61l-1.45-2c-1.0987652-1.4978952-2.7478774-2.4976062-4.5841289-2.7789522s-3.7090316.1787492-5.2058711 1.2789522c-.2125143.1594561-.3528379.3969267-.39.66-.0399531.2607529.0247441.5267304.18.74l3.55 4.84c1.093319 1.5002825 2.7435873 2.4983705 4.58 2.77.3569015.0597364.7181339.0898391 1.08.09.761558.006284 1.5187612-.1154093 2.24-.36v3.15h-11c-.6038348.002559-1.1928437.1872777-1.69.53-5.19280884-1.7843862-10.85307462.9520041-12.68 6.13-.24008343.6448658-.40125478 1.3164131-.48 2-.00972764.0763581-.00972764.1536419 0 .23-.05935731.3671927-.09277336.7381108-.10003844 1.11-.00100076.3708378.01903152.741435.06003844 1.11.40836333 3.5488691 2.67882005 6.6103803 5.95626565 8.0315005 3.2774456 1.4211203 7.06406545.985994 9.93373435-1.1415005.4215108 1.1922886 1.5454199 1.9922239 2.81 2h33.19c1.6568542 0 3-1.3431458 3-3v-2c.0021716-.3415805-.0588549-.6806165-.18-1h.18c1.6568542 0 3-1.3431458 3-3v-2c0-1.6568542-1.3431458-3-3-3h-.18c.1211451-.3193835.1821716-.6584195.18-1v-2c.0021716-.3415805-.0588549-.6806165-.18-1h.18c1.6568542 0 3-1.3431458 3-3zm-26.29-8.18c1.404498-1.921384 3.9686666-2.5864783 6.13-1.59l-2.9 3.95c-1.404498 1.921384-3.9686666 2.5864783-6.13 1.59zm-12 2.36-2.9-3.95c2.1613334-.9964783 4.725502-.331384 6.13 1.59l2.9 4c-2.172892.9860942-4.7397741.299359-6.13-1.64zm.11-17.75c-.3811359-.8036714-.6245242-1.6656716-.72-2.55-.0371586-.2918093-.053866-.5858598-.05-.88-.0016173-.29440812.0184368-.58853601.06-.88 0 0 0-.12 0-.16s0-.11 0-.12c.0687779-.51515463.1928263-1.02140593.37-1.51 1.1321386-3.19276175 4.1524544-5.32635081 7.54-5.32635081s6.4078614 2.13358906 7.54 5.32635081c.2016535.49600524.3491747 1.01232954.44 1.54.0487768.3745589.0655041.75259681.05 1.13.0002787.2976865-.0197679.5950446-.06.89-.0875038.8826591-.3313004 1.7427193-.72 2.54-1.3256803 2.7883491-4.1375546 4.5649782-7.225 4.5649782s-5.8993197-1.7766291-7.225-4.5649782zm-9.77 42.5701496c-4.09625399.0247003-7.54947914-3.0486701-8-7.1201496-.02047923-.2929759-.02047923-.5870241 0-.88-.00161734-.2944081.01843683-.588536.06-.88 0 0 0-.12 0-.16v-.12c.06877793-.5151546.19282626-1.0214059.37-1.51 1.13213858-3.1927617 4.15245438-5.3263508 7.54-5.3263508 3.3875456 0 6.4078614 2.1335891 7.54 5.3263508.2016535.4960052.3491747 1.0123295.44 1.54.0487768.3745589.0655041.7525968.05 1.13.0002787.2976865-.0197679.5950446-.06.89-.0875038.8826591-.3313004 1.7427193-.72 2.54-1.3234584 2.7886751-4.1332148 4.5671497-7.22 4.5701496zm25.75-.0001496h-17c-.4620038.017082-.8754894-.2847625-1-.73l-.22-.79c.5669775-.664828 1.0443763-1.4010979 1.42-2.19.477503-.9980182.7818398-2.0699602.9-3.17.0710702-.3702077.1211502-.7441378.15-1.12.0017165-.4755263-.0350704-.950411-.11-1.42-.0879607-.6516332-.2455277-1.2919587-.47-1.91-.6628221-1.8690788-1.8717033-3.4960169-3.47-4.6700288h23.69c.313008-.0023428.6090686.1419868.8.3900288.1923065.250095.2553182.576273.17.88l-3.89 14c-.1217471.4342125-.5190537.7332165-.97.73zm17.2-1c0 .5522847-.4477153 1-1 1h-13.38c.0292869-.0609782.0527251-.1245963.07-.19l1.06-3.81h12.25c.5522847 0 1 .4477153 1 1zm2-9c.5522847 0 1 .4477153 1 1v2c0 .5522847-.4477153 1-1 1h-14.7l1.11-4zm-12.48-6h9.48c.5522847 0 1 .4477153 1 1v2c0 .5522847-.4477153 1-1 1h-10l.61-2.2c.1612362-.5944062.1297244-1.2246418-.09-1.8zm-1.52-2c-.5522847 0-1-.4477153-1-1v-2c0-.5522847.4477153-1 1-1h14c.5522847 0 1 .4477153 1 1v2c0 .5522847-.4477153 1-1 1z" fill="#101527"/></g></g></svg>

<?xml version="1.0" encoding="UTF-8"?>
<svg width="58px" height="58px" viewBox="0 0 58 58" version="1.1" xmlns="http://www.w3.org/2000/svg" xmlns:xlink="http://www.w3.org/1999/xlink">
    <title>Founder Group</title>
    <g id="🚧-Sign-up-process-(WIP)(Choosen-one)" stroke="none" stroke-width="1" fill="none" fill-rule="evenodd" opacity="0.8">
        <g id="1.2.1-Sign-up" transform="translate(-662.000000, -318.000000)">
            <g id="Investment-Copy" transform="translate(662.000000, 318.000000)">
                <path d="M30.05,11.5 C30.0827059,12.7269198 29.2095569,13.7917357 28,14 L28,15 C28,15.5522847 27.5522847,16 27,16 C26.4477153,16 26,15.5522847 26,15 L26,14 L25,14 C24.4477153,14 24,13.5522847 24,13 C24,12.4477153 24.4477153,12 25,12 L27.64,12 C27.8781603,11.9521304 28.0495012,11.7429235 28.0495012,11.5 C28.0495012,11.2570765 27.8781603,11.0478696 27.64,11 L26.71,11 C26.0601754,10.9868737 25.4421966,10.7160735 24.9920806,10.2472027 C24.5419645,9.77833178 24.296603,9.14981911 24.31,8.5 C24.2961611,7.4213653 24.9784376,6.45648905 26,6.11 L26,5 C26,4.44771525 26.4477153,4 27,4 C27.5522847,4 28,4.44771525 28,5 L28,6 L29,6 C29.5522847,6 30,6.44771525 30,7 C30,7.55228475 29.5522847,8 29,8 L26.71,8 C26.4718397,8.04786962 26.3004988,8.25707652 26.3004988,8.5 C26.3004988,8.74292348 26.4718397,8.95213038 26.71,9 L28,9 C28.2255642,9.0013084 28.4440607,9.07883941 28.62,9.22 C29.5017131,9.63474261 30.0604964,10.5256699 30.05,11.5 L30.05,11.5 Z" id="Path" fill="#101527" fill-rule="nonzero"></path>
                <path d="M53,53 L53,55 C53,55.5522847 52.5522847,56 52,56 L38.62,56 C38.6492869,55.9390218 38.6727251,55.8754037 38.69,55.81 L39.75,52 L52,52 C52.5522847,52 53,52.4477153 53,53 Z" id="Path" fill="#FFFFFF" fill-rule="nonzero" opacity="0.5"></path>
                <path d="M11,52 L11,53 C11,53.5522847 10.5522847,54 10,54 C9.44771525,54 9,53.5522847 9,53 L9,52 L8,52 C7.44771525,52 7,51.5522847 7,51 C7,50.4477153 7.44771525,50 8,50 L10.64,50 C10.8781603,49.9521304 11.0495012,49.7429235 11.0495012,49.5 C11.0495012,49.2570765 10.8781603,49.0478696 10.64,49 L9.71,49 C9.06017536,48.9868737 8.4421966,48.7160735 7.99208056,48.2472027 C7.54196451,47.7783318 7.29660301,47.1498191 7.31,46.5 C7.29616112,45.4213653 7.97843763,44.4564891 9,44.11 L9,43 C9,42.4477153 9.44771525,42 10,42 C10.5522847,42 11,42.4477153 11,43 L11,44 L12,44 C12.5522847,44 13,44.4477153 13,45 C13,45.5522847 12.5522847,46 12,46 L9.71,46 C9.47183973,46.0478696 9.30049876,46.2570765 9.30049876,46.5 C9.30049876,46.7429235 9.47183973,46.9521304 9.71,47 L11,47 C11.2255642,47.0013084 11.4440607,47.0788394 11.62,47.22 C12.6293147,47.6774224 13.2213786,48.740507 13.0788403,49.8394312 C12.936302,50.9383553 12.0926139,51.8152126 11,52 Z" id="Path" fill="#101527"></path>
                <path d="M40.66,41.27 L36.77,55.27 C36.6454894,55.7152375 36.2320038,56.017082 35.77,56 L18.77,56 C18.3079962,56.017082 17.8945106,55.7152375 17.77,55.27 L17.55,54.48 C18.1169775,53.815172 18.5943763,53.0789021 18.97,52.29 C19.447503,51.2919818 19.7518398,50.2200398 19.87,49.12 C19.9511437,48.7503733 20.0112403,48.3764385 20.05,48 C20.0517165,47.5244737 20.0149296,47.049589 19.94,46.58 C19.8520393,45.9283668 19.6944723,45.2880413 19.47,44.67 C18.8071779,42.8009212 17.5982967,41.1739831 16,39.9999712 L39.69,39.9999712 C40.003008,39.9976284 40.2990686,40.141958 40.49,40.39 C40.6823065,40.640095 40.7453182,40.966273 40.66,41.27 Z" id="Path" fill="#FFFFFF" fill-rule="nonzero" opacity="0.5"></path>
                <path d="M56,47 L56,49 C56,49.5522847 55.5522847,50 55,50 L40.3,50 L41.41,46 L55,46 C55.5522847,46 56,46.4477153 56,47 Z" id="Path" fill="#FFFFFF" fill-rule="nonzero" opacity="0.5"></path>
                <rect id="Rectangle" fill="#FFFFFF" fill-rule="nonzero" opacity="0.5" x="40" y="34" width="16" height="4" rx="1"></rect>
                <path d="M53,41 L53,43 C53,43.5522847 52.5522847,44 52,44 L42,44 L42.61,41.8 C42.7808447,41.2087511 42.7598383,40.5785595 42.55,40 L52,40 C52.5522847,40 53,40.4477153 53,41 Z" id="Path" fill="#FFFFFF" fill-rule="nonzero" opacity="0.5"></path>
                <path d="M28,9 L27.64,9 C27.9855937,8.99760439 28.3273208,9.07278437 28.64,9.22 C28.4587187,9.07451408 28.2324184,8.99672335 28,9 L28,9 Z" id="Path" fill="#000000" fill-rule="nonzero"></path>
                <path d="M10.64,47 C10.9855937,46.9976044 11.3273208,47.0727844 11.64,47.22 C11.4587187,47.0745141 11.2324184,46.9967234 11,47 L10.64,47 Z" id="Path" fill="#000000" fill-rule="nonzero"></path>
                <path d="M58,37 L58,35 C58,33.3431458 56.6568542,32 55,32 L41,32 C39.3431458,32 38,33.3431458 38,35 L38,37 C37.9978284,37.3415805 38.0588549,37.6806165 38.18,38 L28,38 L28,34.59 C31.0160595,35.9686937 34.5856606,35.0418499 36.55,32.37 L40.1,27.53 C40.2552559,27.3167304 40.3199531,27.0507529 40.28,26.79 C40.2428379,26.5269267 40.1025143,26.2894561 39.89,26.13 C38.3931605,25.029797 36.5203804,24.5697018 34.6841289,24.8510478 C32.8478774,25.1323938 31.1987652,26.1321048 30.1,27.63 L28,30.49 L28,20 C28,20 28,20 28,19.95 C29.7169328,19.7787401 31.3619646,19.173038 32.78,18.19 C34.2027904,17.1989505 35.3434421,15.8549802 36.09,14.29 C36.567503,13.2919818 36.8718398,12.2200398 36.99,11.12 C37.0309374,10.7480832 37.0509689,10.3741618 37.05,10 C37.0517165,9.52447368 37.0149296,9.04958895 36.94,8.58 C36.8520393,7.92836679 36.6944723,7.28804133 36.47,6.67 C35.0507085,2.68632506 31.2789543,0.0261287222 27.05,0.0261287222 C22.8210457,0.0261287222 19.0492915,2.68632506 17.63,6.67 C17.3899166,7.31486577 17.2287452,7.98641306 17.15,8.67 C17.1402724,8.7463581 17.1402724,8.8236419 17.15,8.9 C17.0911082,9.26389267 17.0576936,9.63145295 17.05,10 C17.0489608,10.3708378 17.0689931,10.741435 17.11,11.11 C17.633413,15.775141 21.3314215,19.4481911 26,19.94 C26,19.94 26,19.94 26,20 L26,29.61 L24.55,27.61 C23.4512348,26.1121048 21.8021226,25.1123938 19.9658711,24.8310478 C18.1296196,24.5497018 16.2568395,25.009797 14.76,26.11 C14.5474857,26.2694561 14.4071621,26.5069267 14.37,26.77 C14.3300469,27.0307529 14.3947441,27.2967304 14.55,27.51 L18.1,32.35 C19.193319,33.8502825 20.8435873,34.8483705 22.68,35.12 C23.0369015,35.1797364 23.3981339,35.2098391 23.76,35.21 C24.521558,35.216284 25.2787612,35.0945907 26,34.85 L26,38 L15,38 C14.3961652,38.002559 13.8071563,38.1872777 13.31,38.53 C8.11719116,36.7456138 2.45692538,39.4820041 0.63,44.66 C0.389916568,45.3048658 0.228745217,45.9764131 0.15,46.66 C0.140272361,46.7363581 0.140272361,46.8136419 0.15,46.89 C0.0906426875,47.2571927 0.0572266416,47.6281108 0.04996156,48 C0.0489607975,48.3708378 0.0689930816,48.741435 0.11,49.11 C0.518363334,52.6588691 2.78882005,55.7203803 6.06626565,57.1415005 C9.34371125,58.5626208 13.1303311,58.1274945 16,56 C16.4215108,57.1922886 17.5454199,57.9922239 18.81,58 L52,58 C53.6568542,58 55,56.6568542 55,55 L55,53 C55.0021716,52.6584195 54.9411451,52.3193835 54.82,52 L55,52 C56.6568542,52 58,50.6568542 58,49 L58,47 C58,45.3431458 56.6568542,44 55,44 L54.82,44 C54.9411451,43.6806165 55.0021716,43.3415805 55,43 L55,41 C55.0021716,40.6584195 54.9411451,40.3193835 54.82,40 L55,40 C56.6568542,40 58,38.6568542 58,37 Z M31.71,28.82 C33.114498,26.898616 35.6786666,26.2335217 37.84,27.23 L34.94,31.18 C33.535502,33.101384 30.9713334,33.7664783 28.81,32.77 L31.71,28.82 Z M19.71,31.18 L16.81,27.23 C18.9713334,26.2335217 21.535502,26.898616 22.94,28.82 L25.84,32.82 C23.667108,33.8060942 21.1002259,33.119359 19.71,31.18 L19.71,31.18 Z M19.82,13.43 C19.4388641,12.6263286 19.1954758,11.7643284 19.1,10.88 C19.0628414,10.5881907 19.046134,10.2941402 19.05,10 C19.0483827,9.70559188 19.0684368,9.41146399 19.11,9.12 C19.11,9.12 19.11,9 19.11,8.96 C19.11,8.92 19.11,8.85 19.11,8.84 C19.1787779,8.32484537 19.3028263,7.81859407 19.48,7.33 C20.6121386,4.13723825 23.6324544,2.00364919 27.02,2.00364919 C30.4075456,2.00364919 33.4278614,4.13723825 34.56,7.33 C34.7616535,7.82600524 34.9091747,8.34232954 35,8.87 C35.0487768,9.2445589 35.0655041,9.62259681 35.05,10 C35.0502787,10.2976865 35.0302321,10.5950446 34.99,10.89 C34.9024962,11.7726591 34.6586996,12.6327193 34.27,13.43 C32.9443197,16.2183491 30.1324454,17.9949782 27.045,17.9949782 C23.9575546,17.9949782 21.1456803,16.2183491 19.82,13.43 L19.82,13.43 Z M10.05,56.0001496 C5.95374601,56.0248499 2.50052086,52.9514795 2.05,48.88 C2.02952077,48.5870241 2.02952077,48.2929759 2.05,48 C2.04838266,47.7055919 2.06843683,47.411464 2.11,47.12 C2.11,47.12 2.11,47 2.11,46.96 L2.11,46.84 C2.17877793,46.3248454 2.30282626,45.8185941 2.48,45.33 C3.61213858,42.1372383 6.63245438,40.0036492 10.02,40.0036492 C13.4075456,40.0036492 16.4278614,42.1372383 17.56,45.33 C17.7616535,45.8260052 17.9091747,46.3423295 18,46.87 C18.0487768,47.2445589 18.0655041,47.6225968 18.05,48 C18.0502787,48.2976865 18.0302321,48.5950446 17.99,48.89 C17.9024962,49.7726591 17.6586996,50.6327193 17.27,51.43 C15.9465416,54.2186751 13.1367852,55.9971497 10.05,56.0001496 L10.05,56.0001496 Z M35.8,56 L18.8,56 C18.3379962,56.017082 17.9245106,55.7152375 17.8,55.27 L17.58,54.48 C18.1469775,53.815172 18.6243763,53.0789021 19,52.29 C19.477503,51.2919818 19.7818398,50.2200398 19.9,49.12 C19.9710702,48.7497923 20.0211502,48.3758622 20.05,48 C20.0517165,47.5244737 20.0149296,47.049589 19.94,46.58 C19.8520393,45.9283668 19.6944723,45.2880413 19.47,44.67 C18.8071779,42.8009212 17.5982967,41.1739831 16,39.9999712 L39.69,39.9999712 C40.003008,39.9976284 40.2990686,40.141958 40.49,40.39 C40.6823065,40.640095 40.7453182,40.966273 40.66,41.27 L36.77,55.27 C36.6482529,55.7042125 36.2509463,56.0032165 35.8,56 L35.8,56 Z M53,55 C53,55.5522847 52.5522847,56 52,56 L38.62,56 C38.6492869,55.9390218 38.6727251,55.8754037 38.69,55.81 L39.75,52 L52,52 C52.5522847,52 53,52.4477153 53,53 L53,55 Z M55,46 C55.5522847,46 56,46.4477153 56,47 L56,49 C56,49.5522847 55.5522847,50 55,50 L40.3,50 L41.41,46 L55,46 Z M42.52,40 L52,40 C52.5522847,40 53,40.4477153 53,41 L53,43 C53,43.5522847 52.5522847,44 52,44 L42,44 L42.61,41.8 C42.7712362,41.2055938 42.7397244,40.5753582 42.52,40 L42.52,40 Z M41,38 C40.4477153,38 40,37.5522847 40,37 L40,35 C40,34.4477153 40.4477153,34 41,34 L55,34 C55.5522847,34 56,34.4477153 56,35 L56,37 C56,37.5522847 55.5522847,38 55,38 L41,38 Z" id="Shape" fill="#101527" fill-rule="nonzero"></path>
            </g>
        </g>
    </g>
</svg>
